resources/img/scalable/actions/flypie-cold-symbolic.svg

<?xml version="1.0" encoding="UTF-8" standalone="no"?>
<svg
   xmlns:dc="http://purl.org/dc/elements/1.1/"
   xmlns:cc="http://creativecommons.org/ns#"
   xmlns:rdf="http://www.w3.org/1999/02/22-rdf-syntax-ns#"
   xmlns:svg="http://www.w3.org/2000/svg"
   xmlns="http://www.w3.org/2000/svg"
   xmlns:sodipodi="http://sodipodi.sourceforge.net/DTD/sodipodi-0.dtd"
   xmlns:inkscape="http://www.inkscape.org/namespaces/inkscape"
   width="4.2333mm"
   height="4.2333mm"
   version="1.1"
   viewBox="0 0 4.2333 4.2333"
   id="svg17081"
   sodipodi:docname="flypie-cold-symbolic.svg"
   inkscape:version="1.0.2 (e86c870879, 2021-01-15)">
  <defs
     id="defs17085" />
  <sodipodi:namedview
     pagecolor="#ffffff"
     bordercolor="#666666"
     borderopacity="1"
     objecttolerance="10"
     gridtolerance="10"
     guidetolerance="10"
     inkscape:pageopacity="0"
     inkscape:pageshadow="2"
     inkscape:window-width="1461"
     inkscape:window-height="1061"
     id="namedview17083"
     showgrid="false"
     inkscape:zoom="45.937859"
     inkscape:cx="7.9999374"
     inkscape:cy="7.9999374"
     inkscape:window-x="0"
     inkscape:window-y="32"
     inkscape:window-maximized="0"
     inkscape:current-layer="svg17081"
     inkscape:document-rotation="0" />
  <metadata
     id="metadata17051">
    <rdf:RDF>
      <cc:Work
         rdf:about="">
        <dc:format>image/svg+xml</dc:format>
        <dc:type
           rdf:resource="http://purl.org/dc/dcmitype/StillImage" />
        <dc:title></dc:title>
      </cc:Work>
    </rdf:RDF>
  </metadata>
  <path
     id="path7750"
     d="M 1.9786361,0.13431062 A 0.13230489,0.13230489 0 0 0 1.8484108,0.26866868 V 0.67432783 L 1.5171658,0.48467715 A 0.13230489,0.13230489 0 1 0 1.385906,0.71411851 L 1.8484108,0.97870183 V 1.8913079 l -0.790649,-0.456303 0.00212,-0.53278352 A 0.13230489,0.13230489 0 1 0 0.79581108,0.90116304 L 0.79422358,1.283052 0.44282518,1.0799658 a 0.13230489,0.13230489 0 0 0 -0.18345149,0.049091 v 5.292e-4 a 0.13230489,0.13230489 0 0 0 0.0511598,0.179832 L 0.66193189,1.5119909 0.33223726,1.7042265 A 0.13230489,0.13230489 0 1 0 0.46504486,1.932636 L 0.92548337,1.6644357 1.7156165,2.1207387 0.92548337,2.5770417 0.46504489,2.3088416 A 0.13230489,0.13230489 0 1 0 0.33223729,2.537251 l 0.32969463,0.1922357 -0.3513984,0.2025729 a 0.13230489,0.13230489 0 0 0 -0.0490934,0.1834515 v 5.292e-4 a 0.13230489,0.13230489 0 0 0 0.18138509,0.045474 l 0.3513984,-0.2030862 0.001587,0.381889 A 0.13230489,0.13230489 0 1 0 1.0598785,3.3392587 L 1.0577618,2.8064752 1.8484108,2.3501959 V 3.2762375 L 1.3864246,3.537204 A 0.13236037,0.13236037 0 1 0 1.5166472,3.7676799 L 1.8484108,3.580093 v 0.3927422 a 0.13230489,0.13230489 0 1 0 0.2645834,0 V 3.580093 L 2.4447578,3.7676799 A 0.13236037,0.13236037 0 1 0 2.5749804,3.537204 L 2.1129942,3.2762375 V 2.3501959 l 0.8020181,0.4630208 -0.00466,0.5307171 a 0.13236052,0.13236052 0 1 0 0.2645833,0.00212 L 3.1785638,2.965196 3.5185957,3.1615645 A 0.13242399,0.13242399 0 1 0 3.6508874,2.9321231 L 3.3108555,2.735752 3.6390023,2.5424819 A 0.13236115,0.13236115 0 0 0 3.5046442,2.3145883 L 3.047304,2.5837727 2.2452858,2.1207519 3.047304,1.6577311 3.5046416,1.9269658 A 0.13236036,0.13236036 0 1 0 3.6389996,1.6990723 L 3.3108528,1.5058021 3.6508847,1.309431 A 0.13242399,0.13242399 0 1 0 3.518593,1.0799896 L 3.1785611,1.2763581 3.1749364,0.89550361 A 0.13236052,0.13236052 0 1 0 2.910353,0.89762027 L 2.9150097,1.4283374 2.1129915,1.8913582 V 0.9787521 L 2.5754964,0.71416878 A 0.13230489,0.13230489 0 1 0 2.4442366,0.48472742 L 2.1129942,0.67432783 V 0.26866868 A 0.13230489,0.13230489 0 0 0 1.9786361,0.13431062 Z"
     style="color:#000000;font-style:normal;font-variant:normal;font-weight:normal;font-stretch:normal;font-size:medium;line-height:normal;font-family:sans-serif;font-variant-ligatures:normal;font-variant-position:normal;font-variant-caps:normal;font-variant-numeric:normal;font-variant-alternates:normal;font-feature-settings:normal;text-indent:0;text-align:start;text-decoration:none;text-decoration-line:none;text-decoration-style:solid;text-decoration-color:#000000;letter-spacing:normal;word-spacing:normal;text-transform:none;writing-mode:lr-tb;direction:ltr;text-orientation:mixed;dominant-baseline:auto;baseline-shift:baseline;text-anchor:start;white-space:normal;shape-padding:0;clip-rule:nonzero;display:inline;overflow:visible;visibility:visible;isolation:auto;mix-blend-mode:normal;color-interpolation:sRGB;color-interpolation-filters:linearRGB;solid-color:#000000;solid-opacity:1;vector-effect:none;fill:#2e3436;fill-opacity:1;fill-rule:nonzero;stroke:none;stroke-width:0.264583;stroke-linecap:round;stroke-linejoin:miter;stroke-miterlimit:4;stroke-dasharray:none;stroke-dashoffset:0;stroke-opacity:1;marker:none;color-rendering:auto;image-rendering:auto;shape-rendering:auto;text-rendering:auto;enable-background:accumulate" />
</svg>

<svg xmlns="http://www.w3.org/2000/svg" width="16" height="16" viewBox="0 0 4.233 4.233"><path d="M1.979.134a.132.132 0 0 0-.13.135v.405l-.332-.19a.132.132 0 1 0-.131.23l.462.265v.912l-.79-.456.002-.533a.132.132 0 1 0-.264 0l-.002.381-.351-.203a.132.132 0 0 0-.184.05.132.132 0 0 0 .052.18l.35.202-.329.192a.132.132 0 1 0 .133.229l.46-.269.79.457-.79.456-.46-.268a.132.132 0 1 0-.133.228l.33.192-.351.203a.132.132 0 0 0-.05.184.132.132 0 0 0 .182.046l.351-.204.002.382a.132.132 0 1 0 .264 0l-.002-.534.79-.456v.926l-.462.261a.132.132 0 1 0 .13.23l.332-.187v.393a.132.132 0 1 0 .265 0V3.58l.332.188a.132.132 0 1 0 .13-.23l-.462-.262V2.35l.802.463-.005.53a.132.132 0 1 0 .265.003l.004-.38.34.196a.132.132 0 1 0 .132-.23l-.34-.196.328-.194a.132.132 0 0 0-.134-.227l-.458.269-.802-.463.802-.463.458.269a.132.132 0 1 0 .134-.228l-.328-.193.34-.197a.132.132 0 1 0-.132-.229l-.34.196-.004-.38a.132.132 0 1 0-.265.002l.005.53-.802.463V.98l.462-.265a.132.132 0 1 0-.13-.23l-.332.19V.27a.132.132 0 0 0-.134-.135Z" style="color:#000;font-style:normal;font-variant:normal;font-weight:400;font-stretch:normal;font-size:medium;line-height:normal;font-family:sans-serif;font-variant-ligatures:normal;font-variant-position:normal;font-variant-caps:normal;font-variant-numeric:normal;font-variant-alternates:normal;font-feature-settings:normal;text-indent:0;text-align:start;text-decoration:none;text-decoration-line:none;text-decoration-style:solid;text-decoration-color:#000;letter-spacing:normal;word-spacing:normal;text-transform:none;writing-mode:lr-tb;direction:ltr;text-orientation:mixed;dominant-baseline:auto;baseline-shift:baseline;text-anchor:start;white-space:normal;shape-padding:0;clip-rule:nonzero;display:inline;overflow:visible;visibility:visible;isolation:auto;mix-blend-mode:normal;color-interpolation:sRGB;color-interpolation-filters:linearRGB;solid-color:#000;solid-opacity:1;vector-effect:none;fill:#2e3436;fill-opacity:1;fill-rule:nonzero;stroke:none;stroke-width:.264583;stroke-linecap:round;stroke-linejoin:miter;stroke-miterlimit:4;stroke-dasharray:none;stroke-dashoffset:0;stroke-opacity:1;marker:none;color-rendering:auto;image-rendering:auto;shape-rendering:auto;text-rendering:auto;enable-background:accumulate"/></svg>
